logo/aws-lambda.svg

<?xml version="1.0" encoding="UTF-8"?>
<svg width="256px" height="256px" viewBox="0 0 256 256" version="1.1" xmlns="http://www.w3.org/2000/svg" xmlns:xlink="http://www.w3.org/1999/xlink" preserveAspectRatio="xMidYMid">
    <title>AWS Lambda</title>
    <defs>
        <linearGradient x1="0%" y1="100%" x2="100%" y2="0%" id="linearGradient-1">
            <stop stop-color="#C8511B" offset="0%"></stop>
            <stop stop-color="#FF9900" offset="100%"></stop>
        </linearGradient>
    </defs>
    <g>
        <rect fill="url(#linearGradient-1)" x="0" y="0" width="256" height="256"></rect>
        <path d="M89.6241126,211.2 L49.8903277,211.2 L93.8354832,119.3472 L113.74728,160.3392 L89.6241126,211.2 Z M96.7029357,110.5696 C96.1640858,109.4656 95.0414813,108.7648 93.8162384,108.7648 L93.8066163,108.7648 C92.5717514,108.768 91.4491466,109.4752 90.9199187,110.5856 L41.9134208,213.0208 C41.4387197,214.0128 41.5060758,215.1776 42.0962451,216.1088 C42.6799994,217.0368 43.7063805,217.6 44.8065331,217.6 L91.654423,217.6 C92.8957027,217.6 94.0215149,216.8864 94.5539501,215.7696 L120.203859,161.6896 C120.617619,160.8128 120.614412,159.7984 120.187822,158.928 L96.7029357,110.5696 Z M207.985117,211.2 L168.507928,211.2 L105.173789,78.624 C104.644561,77.5104 103.515541,76.8 102.277469,76.8 L76.447943,76.8 L76.4768099,44.8 L127.103066,44.8 L190.145328,177.3728 C190.674556,178.4864 191.803575,179.2 193.041647,179.2 L207.985117,179.2 L207.985117,211.2 Z M211.192558,172.8 L195.071958,172.8 L132.029696,40.2272 C131.500468,39.1136 130.371449,38.4 129.130169,38.4 L73.272576,38.4 C71.5052758,38.4 70.0683421,39.8304 70.0651344,41.5968 L70.0298528,79.9968 C70.0298528,80.848 70.3634266,81.6608 70.969633,82.2624 C71.5694246,82.864 72.3841146,83.2 73.2372941,83.2 L100.253573,83.2 L163.59092,215.776 C164.123355,216.8896 165.24596,217.6 166.484032,217.6 L211.192558,217.6 C212.966274,217.6 214.4,216.1664 214.4,214.4 L214.4,176 C214.4,174.2336 212.966274,172.8 211.192558,172.8 L211.192558,172.8 Z" fill="#FFFFFF"></path>
    </g>
</svg>

<svg viewBox="0 0 256 256" xmlns="http://www.w3.org/2000/svg"><defs><linearGradient id="a" x1="0%" x2="100%" y1="100%" y2="0%"><stop offset="0%" stop-color="#C8511B"/><stop offset="100%" stop-color="#F90"/></linearGradient></defs><path fill="url(#a)" d="M0 0h256v256H0Z"/><path fill="#FFF" d="M89.62 211.2H49.88l43.94-91.86 19.91 40.99 -24.13 50.86Zm7.07-100.64c-.54-1.11-1.67-1.81-2.89-1.81h-.01c-1.24 0-2.36.71-2.89 1.82L41.89 213c-.48.99-.41 2.15.18 3.08 .58.92 1.61 1.49 2.71 1.49h46.84c1.24 0 2.36-.72 2.89-1.84l25.64-54.08c.41-.88.41-1.9-.02-2.77l-23.49-48.36Zm111.28 100.63h-39.48L105.15 78.614c-.53-1.12-1.66-1.83-2.9-1.83H76.42l.02-32h50.62l63.04 132.57c.52 1.11 1.65 1.82 2.89 1.82h14.94v32Zm3.2-38.4h-16.13L131.99 40.21c-.53-1.12-1.66-1.83-2.9-1.83H73.23c-1.77 0-3.21 1.43-3.21 3.19l-.04 38.4c0 .85.33 1.66.93 2.26 .59.6 1.41.93 2.26.93h27.01l63.33 132.57c.53 1.11 1.65 1.82 2.89 1.82h44.7c1.77 0 3.2-1.44 3.2-3.2v-38.4c0-1.77-1.44-3.2-3.21-3.2v0Z"/></svg>
